icons/folder_type_images.svg

<svg xmlns="http://www.w3.org/2000/svg" viewBox="0 0 32 32"><path d="M27.5 5.5h-9.3l-2.1 4.2H4.4v16.8h25.2v-21Zm0 4.2h-8.2l1.1-2.1h7.1Z" style="fill:#55bfa0"/><path d="M31 15.778V31H10V15.777h21" style="fill:#2dcc9f"/><path d="M26.674 17.8a1.653 1.653 0 1 0 .845.467 1.659 1.659 0 0 0-.845-.467M22.083 26.467 18 20.786l-6.062 8.428h8.174q.987-1.374 1.976-2.747M25.043 23.391l-4.188 5.824h8.377q-2.094-2.915-4.189-5.824Z" style="fill:#fff"/></svg>

<svg xmlns="http://www.w3.org/2000/svg" viewBox="0 0 32 32"><title>folder_type_images</title><path d="M27.5,5.5H18.2L16.1,9.7H4.4V26.5H29.6V5.5Zm0,4.2H19.3l1.1-2.1h7.1Z" style="fill:#55bfa0"/><path d="M31,15.778Q31,23.39,31,31H10q0-7.612,0-15.223H31" style="fill:#2dcc9f"/><path d="M26.674,17.8a1.653,1.653,0,1,0,.845.467,1.659,1.659,0,0,0-.845-.467" style="fill:#fff"/><path d="M22.083,26.467,18,20.786l-6.062,8.428h8.174q.987-1.374,1.976-2.747" style="fill:#fff"/><path d="M25.043,23.391q-2.095,2.912-4.188,5.824h8.377Q27.138,26.3,25.043,23.391Z" style="fill:#fff"/></svg>
